icons/strikethrough-24.svg

<svg xmlns="http://www.w3.org/2000/svg" width="24" height="24" viewBox="0 0 24 24"><path d="M16.533 12.5l.054.043c.93.75 1.538 1.77 1.538 3.066a4.13 4.13 0 01-1.479 3.177c-1.058.904-2.679 1.464-4.974 1.464-2.35 0-4.252-.837-5.318-1.865a.75.75 0 111.042-1.08c.747.722 2.258 1.445 4.276 1.445 2.065 0 3.296-.504 3.999-1.105a2.63 2.63 0 00.954-2.036c0-.764-.337-1.38-.979-1.898-.649-.523-1.598-.931-2.76-1.211H3.75a.75.75 0 010-1.5h16.5a.75.75 0 010 1.5zM12.36 5C9.37 5 8.105 6.613 8.105 7.848c0 .411.072.744.193 1.02a.75.75 0 01-1.373.603 3.988 3.988 0 01-.32-1.623c0-2.363 2.271-4.348 5.755-4.348 1.931 0 3.722.794 4.814 1.5a.75.75 0 11-.814 1.26c-.94-.607-2.448-1.26-4-1.26z"/></svg>

<svg xmlns="http://www.w3.org/2000/svg" width="24" height="24" viewBox="0 0 24 24">
  <defs/>
  <path d="M16.533,12.5 C16.551,12.514 16.569,12.529 16.587,12.543 C17.517,13.293 18.125,14.313 18.125,15.609 C18.128,16.835 17.586,17.999 16.646,18.786 C15.588,19.69 13.967,20.25 11.672,20.25 C9.322,20.25 7.42,19.413 6.354,18.385 C6.056,18.097 6.047,17.622 6.335,17.324 C6.623,17.026 7.098,17.017 7.396,17.305 C8.143,18.027 9.654,18.75 11.672,18.75 C13.737,18.75 14.968,18.246 15.671,17.645 C16.278,17.143 16.628,16.396 16.625,15.609 C16.625,14.845 16.288,14.229 15.646,13.711 C14.997,13.188 14.048,12.78 12.886,12.5 L3.75,12.5 C3.336,12.5 3,12.164 3,11.75 C3,11.336 3.336,11 3.75,11 L20.25,11 C20.664,11 21,11.336 21,11.75 C21,12.164 20.664,12.5 20.25,12.5 Z M12.36,5 C9.37,5 8.105,6.613 8.105,7.848 C8.105,8.259 8.177,8.592 8.298,8.868 C8.453,9.245 8.279,9.676 7.906,9.84 C7.533,10.004 7.098,9.84 6.925,9.471 C6.706,8.958 6.597,8.405 6.605,7.848 C6.605,5.485 8.876,3.5 12.36,3.5 C14.291,3.5 16.082,4.294 17.174,5 C17.522,5.225 17.622,5.689 17.397,6.037 C17.172,6.385 16.708,6.485 16.36,6.26 C15.42,5.653 13.912,5 12.36,5 Z"/>
</svg>
